X:1
T:Et la lune descend sur le temple qui fut (2)
T:Images (Deuxième Série)
T:à Louis LALOY
T:Et la lune descend sur le temple qui fut 
T:Claude Debussy
T:Images (Deuxième Série)
T:L 111
T:2
T:Oli 2020
T:Oli 2020
T:Oli 2020
T:Oli 2020
T:Oli 2020
C:Claude Debussy
Z:Oli 2020
%%score { ( 1 4 ) | ( 2 5 7 ) | ( 3 6 8 ) }
L:1/8
Q:1/4=66
M:4/4
K:G
V:1 treble nm="Piano" snm="Piano"
V:4 treble 
V:2 treble 
V:5 treble 
V:7 treble 
V:3 bass 
V:6 bass 
V:8 bass 
V:1
"^doux et sans rigueur""^Lent (M.M.)" z2!p! (!tenuto![eab]4!pp! !tenuto![eab]2- | %1
 [eab]3 [Bef]/[cfg]/ [dga]!<(![^G^c^d][A=de]!<)![=c=f=g] |!pp!!>(! [EAB][_Acd]!>)! [F=AB]6) | %3
!pp! Bd ([=AB]6 |!<(! B8)!<)! | z2!p! (!tenuto!.[^c^e^g^c']2 !tenuto!.[^Adf^a]4) | %6
 z2!pp! ([^c^e^g^c']2 [^Adf^a]2 [=GBd=g]2- |!>(! [GBdg]3 [A^cea] [=c_eg=c']2!>)! [d=fad']2) | %8
!p!!<(! (!tenuto!.[^f^a^c'^f']2!<)! !tenuto!.[^dgb^d']6-) | %9
 ([^dgb^d']2!>(! [f^a^c'f']2 [dgbd']2 [ceg=c']2-!>)! | %10
!p!!>(! [cegc']3 [dfad'] [=f_a=c'=f']2 [g_bd'g']2)!>)! |!pp!!8va(! [=bf'=b']8!8va)! | x8 | %13
"^un peu en dehors" (3(.B.f.f (3.f.f.e (3.f!<(!.^g!tenuto!a-!<)!!>(! a!>)!!tenuto!g) | %14
 (3.f.f.^g (3.f.f.e"^Cédez"[Q:1/4=54]"^T" !tenuto!f4 | %15
"^au Mouvt"!p![Q:1/4=66]"^T" (([G^d]4 [GBd]))!<(! ([=cg]2 a!<)! | %16
!>(! [A^cd][^G^Bf][=FA=B]!>)![EGd]) !tenuto![=GA]4- | [GA]4!<(! [GA]4-!<)! | %18
!>(! [GA]4!>)!"^Cédez"[Q:1/4=54]"^T" (.[AB].[_Acd].[B^d^e].[=d^f^g]) | %19
!pp![Q:1/4=60]"^(M.M." (.[^G^ce^g]2 .[FAcf]2!<(! .[D=GBd]2!<)! .[_E_Ac_e]2) | %20
!pp! ([^G^c=e^g]2 [FAcf]2!>(! [D=GBd]2!>)! [_E_A=c_e]2 | %21
!<(! !tenuto![^G^c=e^g]4!<)!!>(! !tenuto![^A^df^a]4)!>)! | %22
!pp! (.[FB=df]2 .[EGBe]2!<(! .[C=F_Ac]2 .[^C^F=A^c]2)!<)! | %23
!pp!"^Cédez"[Q:1/4=56]"^T" ([FBdf]2 [EGBe]2!>(! [C=FAc]2!>)! [^C^F^A^c]2) | %24
"^expressif"[Q:1/4=52]"^(M.M.)"!pp! (3(.b.f'.f' (3.f'.f'.e'!<(! (3.f'.^g'!tenuto!a'-!<)!!>(! a'.g')!>)! | %25
!pp! (3(.f'.f'.^g' (3.f'.f'.e') (f'4 | %26
!pp![Q:1/4=66]"^(M.M.)" (3(f')^d'^c' (3d'^a^g (3d!tenuto!d^c (3dA^G | %27
 (3^DF^G (3^c^Ac (3f^dd (3dfd) | %28
!pp! (!arpeggio![^d'^g']2 !arpeggio![^c'f']2 !arpeggio!d'2 !arpeggio!c'2) | %29
 (!arpeggio![^d'^g']2 !arpeggio![^c'f']2 !arpeggio!d'2 !arpeggio!c'2) | x8 | x8 | %32
!>(![I:staff +1] ^g2!>)! ^e2- (3e2 !tenuto!^a2 !tenuto!g2 |[I:staff -1] x8[Q:1/4=54]"^T" | %34
[Q:1/4=66]"^au Mouvt" z8 |[I:staff +1] [B^d=e][_B=d_a][G=B^c][F^Ae] !tenuto![=AB]4- | %36
 [AB]4 [AB]4- | ([AB]4"^Cédez"[Q:1/4=54]"^T" [GB^c][_Bde][I:staff -1][_d=f=g][e_a_b]) | %38
[Q:1/4=52]"^(M.M.)" z2!pp! (.[d^f=ad']2 .[_B_d=f_b]2 .[=B^d^f=b]2) | %39
 z2!pp!!<(! (.[d^fad']2 .[=fac'=f']2 .[^g^b^d'^g']2)!<)! |!pp! !tenuto![=b^f'b']8 | %41
!<(! (B,2!<)!!>(! ^C4)!>)![Q:1/4=54] z2 | %42
[Q:1/4=52]"^au Mouvt" z2!pp! (.[d^fad']2 .[_B_d=f_b]2 .[=B^d^f=b]2) | %43
 z2!pp!!<(! ([d^fad']2 [=fac'=f']2 [^gb^d'^g']2-!<)! | [^gb^d'^g']4 !tenuto!.[gbd'g']4) | %45
 (!tenuto!.[^gb^d'^g']4 !tenuto!.[gbd'g']4) | %46
 [eab]3 [Bef-]/[cfg]/ [dga]!<(![^G^c^d][A=de]!<)![=c=fg]- | %47
 [c=fg]2"^Cédez"[Q:1/4=44]"^T"!>(! [gc'd']2 [fg]4!>)! | %48
"^Au Mouvt"[Q:1/4=52]"^T" z!pp! (!tenuto![eab]2!>(! [Bef-]/[cfg]/ [dga][^G^c^d][A=de]!>)!!tenuto![=c^fg]- | %49
 [cfg]4 !tenuto![cfg]4) |!pp! (3(.b.f'.f' (3.f'.f'.e' (3.f'.^g'!tenuto!a'- a'.g' | %51
!p! (3.f'.f'.e' (3.f'.f'.^g' (f'4) | x8) | x8 | x8 |"^Retenu"[Q:1/4=42]"^T" x8 | x8 |] %57
V:2
 z2 (!tenuto![EAB]4 !tenuto![EAB]2- | [EAB]3 [B,EF]/[CFG]/ [DGA][^C^D][=DE][=C=F=G] | %2
[K:bass] [E,A,B,][_A,CD] [F,=A,B,]6) |[K:bass] [E,A,B,][_A,CD] ([=A,B,]6 | B,8) | %5
 z2 (!tenuto!.[^G,^C^E^G]2 !tenuto!.[F,B,DF]4) | z2 ([^G,^C^E^G]2 [F,B,DF]2 [D,=G,B,D]2- | %7
 [D,G,B,D]3 [E,A,^CE] [G,=C_EG]2 [A,D=FA]2) |[K:treble] (!tenuto!.[^C^F^A^c]2 !tenuto!.[B,EGB]6-) | %9
[K:treble] [B,EGB]2 [^CF^A^c]2 [B,EGB]2 [G,=CEG]2- | [G,CEG]3 [A,DFA] [C=F_Ac]2 [DG_Bd]2 | %11
 z4"_m.g."!pp![I:staff -1]{!tenuto!bB}[I:staff +1] !tenuto!B4- | %12
 (.B.A[I:staff -1]{!tenuto!fF}[I:staff +1].F.A[I:staff -1]{!tenuto!bB}[I:staff +1] .B.^c[I:staff -1]{!tenuto!e'e}[I:staff +1].e.c) | %13
"^m.d."({bB)} (.B.A"^m.d."({fF)}.F.A"^m.d."({bB)} .B.^c"^m.d."({e'e)}.e.c) | %14
[I:staff -1]{bB}[I:staff +1] (.B.A[I:staff -1]{fF}[I:staff +1].F.A[I:staff -1]{bB}[I:staff +1] .B.^c[I:staff -1]{e'e}[I:staff +1].e.c) | %15
[K:bass] [G,D]4 [B,D][K:treble] ([=CG]2 A | [A,^CD][^G,^B,F][K:bass][=F,A,=B,][E,^G,D]) [=G,A,]4- | %17
 [G,A,]4 [G,A,]4 | [G,A,]4 (.[=F,A,B,].[_A,CD].[B,^D^E].[=D^F^G]) | %19
[K:bass] z2 (.[F,A,^C]2 .[D,G,B,]2 .[_E,_A,=C]2) | z2 (.[F,A,^C]2 .[D,G,B,]2 .[_E,_A,=C]2 | %21
 !tenuto![=E,=A,^C=E]4 !tenuto![^D,^F,^A,^D]4) | z2 (.[E,G,B,]2 .[C,=F,_A,]2 .[^C,^F,=A,]2) | %23
 z2 [E,G,B,]2 [C,=F,A,]2 [^C,^F,^A,]2 | %24
"_frappez les accords sans lourdeur" !tenuto!.[F,B,^DF]4 !tenuto!.[F,A,^CF]4 | %25
 !tenuto!.[F,B,^DF]4 !tenuto!.[F,A,^CF]4 | [F,^A,^D]8- | [F,^A,^D]8 | %28
[K:treble]"^en dehors" (!tenuto!B!tenuto!A!tenuto!F!tenuto!A !tenuto!B!tenuto!^c!tenuto!e!tenuto!c) | %29
 (!tenuto!B!tenuto!A!tenuto!F!tenuto!A !tenuto!B!tenuto!^c!tenuto!e!tenuto!c) | %30
!p!!<(! (3([^G^d][Ae][^A^c] (3[Bf][^B^g][ce] (3[^^c^g][d^e]!<)!!>(![cg] (3[de][cg][de])!>)! | %31
!p! (3(!tenuto!^g2 !tenuto!^c'2 !tenuto!=b2 (3!tenuto!^a2 !tenuto!g2 !tenuto!b2 | %32
!>(! (3^^c[^d^e]c (3[de])=d!>)!^c!p! (6:4:6B[c^d]B[cd]B[cd] | %33
 (3f2 ^e2 ^g2"^Cédez"!>(! e2- e z!>)! |!pp! !tenuto![A=e-]4!<(! e2 x b!<)! | x4 (=F4- | %36
"_expressif" =F2 E2!<(! ^D!<)!!>(! G2!>)! ^F |!>(! =F ^C2!>)! F x2) x2 | %38
 z2[K:bass] (.[A,D^FA]2 .[=F,_B,_D=F]2 .[^F,=B,^D^F]2) | %39
 z2 (.[A,D^FA]2[K:treble] .[C=FAc]2 .[^D^G^B^d]2) | x8 | %41
[K:bass] (3z (A,F,[K:treble] (3z FA[K:bass]"_Cédez" (3z A,F, (3z A,F,) | %42
 z2 (.[A,D^FA]2 .[=F,_B,_D=F]2 .[^F,=B,^D^F]2) | z2 ([A,D^FA]2[K:treble] [C=FAc]2 [^D^GB^d]2- | %44
 [^D^GB^d]4 !tenuto!.[DGBd]4) | (!tenuto!.[^D^GB^d]4 !tenuto!.[DGBd]4) | %46
 [EAB]3 [B,EF-]/[CFG]/ [DGA][^G,^C^D][A,=DE][=C=FG]- | [C=FG]2 [Gcd]2 [FG]4 | %48
 z (!tenuto![EAB]2 ([B,EF]/[CFG]/) [DGA][^G,^C^D][A,=DE][=C^FG]- | [CFG]4 !tenuto![CFG]4) | %50
 (!tenuto![CFG]4 !tenuto![CF^G]4 | !tenuto![CF=G]2 ((!tenuto![CF^G]6) | %52
!pp!"_faites vibrer" (!tenuto!.C4))"^m.d." !tenuto!.C4-) | %53
!pp!!>(! (C4!>)!!pp!!>(! !tenuto!.^C4)!>)! | %54
!pp!!>(! (C4!>)!!pp!!>(! (3:2:2!tenuto!.^C4) !tenuto!B2-!>)! | %55
!pp!!>(! (B!tenuto!A!tenuto!^F!tenuto!A"_m.g."[I:staff -1]{!tenuto!b.B}[I:staff +1] !tenuto!B!tenuto!^c[I:staff -1]{!tenuto!e'.e}[I:staff +1]!tenuto!e!>)!!tenuto!c) | %56
!ppp!"_faites vibrer"[I:staff -1]{!tenuto!!fermata!b'.!fermata!b.!fermata!b}[I:staff +1] !tenuto!.!fermata!B8 |] %57
V:3
 x8 | x4 x ^G,A, x | x8 | x8 | x8 |!pp!"^m.d."!>(! !tenuto!B,,/"_m.g.".E,,/.B,,,/!>)!.E,,,/ x2 x4 | %6
!pp!"^m.d."!>(! !tenuto!B,,/"_m.g.".E,,/.B,,,/!>)!.E,,,/ x2 x4 | x8 | %8
!pp!!>(! !tenuto!B,,/.E,,/.B,,,/!>)!.E,,,/ x2 x4 | x8 | x8 |!8vb(! [B,,,,F,,,B,,,]8!8vb)! | x8 | %13
 x8 | x8 | x8 | x8 | x8 | x8 |!ppp!!ppp! .[A,,,E,,]8 |!ppp!!ppp! .[A,,,E,,]8 | %21
 z2 (.A,,,2 z2 .^D,,,2) |!ppp!!ppp! .[G,,,=D,,]8 |!pp! .[G,,,D,,]8 | z2 .B,,,2 z2 .F,,,2 | %25
 z2 .B,,,2 z2 .F,,,2 | z2!pp! (.^D,,,2!>(! .^D,,2 .^A,,2 | .^D,2 .^A,2!>)! !tenuto!^D4) | x8 | x8 | %30
 (3([^G,^D][A,E][^A,^C] (3[B,F][^B,^G][CE][K:treble] (3[^^C^G][^D^E][CG] (3[DE][CG][DE]) | %31
 (3!tenuto!^G2 !tenuto!^c2 !tenuto!B2 (3!tenuto!^A2 !tenuto!G2 !tenuto!B2 | %32
!>(! !tenuto!^G2!>)! ^E2- (3E2 !tenuto!^A2 !tenuto!G2 | %33
 (3!tenuto!F2 !tenuto!^E2 !tenuto!^G2 E2- E z |!pp! !tenuto![A,=E-]4 E2 x B | %35
!>(! [B,^D=E][_B,=D_A][K:bass][G,=B,^C]!>)![F,^A,E] [=A,B,]4- | [A,B,]4 [A,B,]4- | %37
 [A,B,]4 [G,B,^C][_B,DE][I:staff -1][_D=F=G][E_A_B] | %38
!pp!"^m.d."!>(![I:staff +1] !tenuto![=F,G,]2!>)! B,,,6 | %39
!pp!"^m.d."!>(! !tenuto![=F,G,]2!>)! B,,,6 | D,,,8 | z8 | %42
!pp!"^m.d."!>(! !tenuto![=F,G,]2!>)! B,,,6 |!pp!"^m.d."!>(! !tenuto![=F,G,]2!>)! B,,,6 | %44
 z2 (.[^G,^C^D]2 z2 .C2) | z2 (.[^G,^C^D]2 z2[I:staff -1] .!tenuto![EAB]2-) |[I:staff +1] x8 | x8 | %48
 x8 | x8 | x8 | x8 | x8 | %53
 ([=F,G,]/C,/ =F,,/_B,,,/-) B,,,2[I:staff -1] (B,/[I:staff +1]^F,/ =B,,/E,,/-) E,,2 | %54
 ([=F,G,]/C,/ =F,,/_B,,,/-) B,,,2[I:staff -1] (B,/[I:staff +1]^F,/ =B,,/-E,,/-) E,,2- | [E,,B,,]8 | %56
 x8 |] %57
V:4
 x8 | x8 | x8 | ([EA][_Ac] G=F/E/ DGFG | AB-!>(! B6)!>)! | x8 | x8 | x8 | x8 | x8 | x8 | %11
!8va(! x8!8va)! | x8 | x8 | x8 | (!tenuto!c2 B2-) x fe[B^d] | x4 (_E4- | %17
 _E2"_expressif" D2 ^C!>(! =F2!>)! E | _E B,2 E) =F x x2 | x8 | x8 | x8 | x8 | x8 | %24
 [B^dfb]4 [A^cfa]4 | [B^dfb]4 [A^cfa]4 | x8 | x8 | (3(.^g.f.f (3.^d.f.f (3.g.f.f (3.d.f.f) | %29
 (3(.^g.f.f (3.^d.f.f (3.g.f.f (3.d.f.f) | x8 | x8 | x8 | x8 | x8 | x8 | x8 | x8 | x8 | x8 | %40
 (bafA B^cec) | x4"^T" x4 | x8 | x8 | z2 (.[^G^c^d]2 z2 .[cf^g]2) | %45
 z2 (.[^G^c^d]2 z2!pp! (.!tenuto![eab]2-) | x8 | x4 (c2 d2)) | x8 | x8 | %50
 !tenuto![cfg]4 !tenuto![cf^g]4 | !tenuto![cf=g]2 !tenuto![cf^g]6 | x8 | x8 | x8 | x8 | x8 |] %57
V:5
 x8 | x8 |[K:bass] x8 |[K:bass] x2 G,=F,/E,/ D,G,F,G, | A,B,- B,6 | x8 | x8 | x8 |[K:treble] x8 | %9
[K:treble] x8 | x8 | x8 | x8 | x8 | x8 |[K:bass] (!tenuto!^C2 B,2-) G,[K:treble] FE[B,^D] | %16
 x4[K:bass] (_E,4- | _E,2 D,2 ^C, =F,2 E, | _E, B,,2 E,) x4 |[K:bass] x8 | x8 | x8 | x8 | x8 | x8 | %25
 x8 | x8 | x8 |[K:treble] ([^C^D]6 [FA]2) | ([^C^D]6 [FA]2) | x8 | %31
 (6:4:6^^c"_très expressif"[^d^e]c[de]c[de] (6:4:6c[de]c[de]c[de] | x8 | %33
 (6:4:6B[^c^d]B[cd]B[cd] (3B[cd]B (3[cd]B_B | (^d2 ^c2-) [Ac] ^gf[c^e] | x8 | x8 | x8 | %38
 x2[K:bass] x6 | x4[K:treble] x4 | x8 |[K:bass] x2[K:treble] x2[K:bass] x4 | x8 | x4[K:treble] x4 | %44
 x4 x2 [F^G]2 | x8 | x8 | z4 (C2 D2) | x8 | x8 | x8 | x8 | x8 | x8 | x8 | x8 | x8 |] %57
V:6
 x8 | x8 | x8 | x8 | x8 | B,,/ x/ x x2 x4 | B,,/ x/ x x2 x4 | x8 | B,,/ x/ x x2 x4 | x8 | x8 | %11
!8vb(! x8!8vb)! | x8 | x8 | x8 | x8 | x8 | x8 | x8 | x8 | x8 | x8 | x8 | x8 | x8 | x8 | x8 | x8 | %28
 x8 | x8 | x4[K:treble] x4 | (6:4:6(^^C[^D^E]C[DE]C[DE] (6:4:6C[DE]C[DE]C[DE] | %32
 (3^^C[^D^E]C (3[DE]=D^C) (6:4:6(B,[C^D]B,[CD]B,[CD] | %33
 (6:4:6B,[^C^D]B,[CD]B,[CD] (3B,[CD]B, (3[CD]B,_B,) | (^D2 ^C2-) [A,C] ^GF[C^E] | %35
 x4[K:bass] !tenuto!=F,4- | =F,2 E,2 ^D, G,2 ^F, | =F, ^C,2 F, x4 | %38
 (.=F,/.C,/"_m.g." .=F,,/._B,,,/-) x2 x4 | (.=F,/.C,/"_m.g." .=F,,/._B,,,/-) x2 x4 | %40
 (3(D,,,D,,A,, (3D,A,D[I:staff -1] (3FAf (3afa) | x8 | %42
[I:staff +1] (.=F,/.C,/"_m.g." .=F,,/._B,,,/-) x2 x4 | (.=F,/.C,/"_m.g." .=F,,/._B,,,/-) x2 x4 | %44
 x8 | x8 | x8 | x8 | x8 | x8 | x8 | x8 | x8 | x8 | x8 | x8 | x8 |] %57
V:7
 x8 | x8 |[K:bass] x8 |[K:bass] x8 | x8 | x8 | x8 | x8 |[K:treble] x8 |[K:treble] x8 | x8 | x8 | %12
 x8 | x8 | x8 |[K:bass] x5[K:treble] x3 | x2[K:bass] x6 | x8 | x8 |[K:bass] x8 | x8 | x8 | x8 | %23
 x8 | x8 | x8 | x8 | x8 |[K:treble] x8 | x8 | x8 | x8 | x8 | x8 | x4 x [^da]2 x | x8 | x8 | x8 | %38
 x2[K:bass] x6 | x4[K:treble] x4 | x8 |[K:bass] x2[K:treble] x2[K:bass] x4 | x8 | x4[K:treble] x4 | %44
 x8 | x8 | x8 | x8 | x8 | x8 | x8 | x8 | x8 | x8 | x8 | x8 | x8 |] %57
V:8
 x8 | x8 | x8 | x8 | x8 | x8 | x8 | x8 | x8 | x8 | x8 |!8vb(! x8!8vb)! | x8 | x8 | x8 | x8 | x8 | %17
 x8 | x8 | x8 | x8 | x8 | x8 | x8 | x8 | x8 | x8 | x8 | x8 | x8 | x4[K:treble] x4 | x8 | x8 | x8 | %34
 x4 x [^DA]2 x | x2[K:bass] x6 | x8 | x8 | x8 | x8 | x8 | x8 | x8 | x8 | x8 | x8 | x8 | x8 | x8 | %49
 x8 | x8 | x8 | x8 | x8 | x8 | x8 | x8 |] %57

